X: 1
T:The Dear Lamb
M:C|
L:1/8
C: Miss Magdelina Stirling's Collection
Z: source from Highland Music Trust, chords by Gary Whaley
K:A
[|"A"{F}EA {AB}cA "E"TB>A"D"FA/F/ |"A"E>A{AB}c>A "E"TB2 "A"A2|"E"[DB,][DB,]"A"[CA,][CA,] "D"D/C/B,/A,/ A,>F | "A"EAcA "E"TB2 "A"A2 |
"A"EAce d/c/B/A/ "Bm"FA/F/ | "A"E>A{AB}c>A "E"TB2 "A"A2|"E"[DB,][DB,]"A"[CA,][CA,] "D"DCB,A, A,>F|"A"EAcA "E"TB2 "A"A2 ||
"D"df/d/"A"ca/c/ "Bm"d/c/B/A/ "D"TF2|df/d/c"A"a/c/ "Bm"TB2 {AB}"A"Aa//b//c'/ | "E" [bd'][bd'][bd'][bd'] "A" [c'a][c'a][c'a][c'a] "D" d'c'Tba"Bm"f>a |"A"eac'a "E"Tb2 "A"a2 |
"D"d/f/d/f/ "A"c/e/c/e/ "Bm"d/c/B/A/ "D" F2 | z2 dfd z2 "A"c/a/c "Bm"TB2 Aa//b//c'/ |"E" [bd'][bd'][bd'][bd'] "A" [c'a][c'a][c'a][c'a] "E" d'/c'/ d'//c'//b//a// "Bm"f/a/f/a/ |"A"eac'a  "E"Tb2 "A"a2 |] 











